assets/svg/close.svg

<svg xmlns="http://www.w3.org/2000/svg" width="512" height="512">
<path style="fill:#dd3e0e; stroke:none;" d="M89 0.514648C70.1691 4.37488 56.9035 23.0965 44 36L19 61C12.7434 67.2566 5.79014 73.5241 2.55556 82C-1.64416 93.0049 -1.4571 107.637 4.46759 118C9.79154 127.313 18.4947 134.495 26 142L91 207L127 243C129.908 245.908 139.035 252.272 137.793 257C136.798 260.79 131.661 264.339 129 267L106 290L31 365C19.3484 376.652 3.99791 388.008 0.51466 405C-1.57688 415.203 0.0580168 427.224 5.69985 436C12.7469 446.962 23.8308 455.831 33 465C54.373 486.373 83.0372 527.369 118 507.381C132.202 499.262 143.515 484.485 155 473L222 406L247 381C249.324 378.678 253.159 373.198 257 374.207C260.79 375.202 264.339 380.339 267 383L288 404L370 486C385.099 501.099 400.478 517.265 424 511.239C442.371 506.533 455.183 488.817 468 476L493 451C499.257 444.743 506.21 438.476 509.444 430C513.644 418.995 513.457 404.363 507.532 394C502.208 384.687 493.505 377.505 486 370L421 305L385 269C382.092 266.092 372.965 259.728 374.207 255C375.202 251.21 380.339 247.661 383 245L406 222L481 147C492.608 135.392 508.009 123.951 511.485 107C513.724 96.0836 511.57 84.2875 505.56 75C498.736 64.4528 487.846 55.8465 479 47L465 33C448.141 16.1405 431.7 -4.95868 405 0.514648C401.208 1.29199 397.364 2.54453 394 4.46759C379.829 12.569 368.454 27.5461 357 39L290 106L265 131C262.676 133.322 258.841 138.802 255 137.793C251.21 136.798 247.661 131.661 245 129L224 108L143 27C127.589 11.5887 112.917 -4.38824 89 0.514648z"/>
</svg>

<svg xmlns="http://www.w3.org/2000/svg" width="512" height="512"><path style="fill:#dd3e0e;stroke:none" d="M89 .515C70.17 4.375 56.904 23.096 44 36L19 61C12.743 67.257 5.79 73.524 2.556 82c-4.2 11.005-4.013 25.637 1.912 36 5.324 9.313 14.027 16.495 21.532 24l65 65 36 36c2.908 2.908 12.035 9.272 10.793 14-.995 3.79-6.132 7.339-8.793 10l-23 23-75 75C19.348 376.652 3.998 388.008.515 405c-2.092 10.203-.457 22.224 5.185 31 7.047 10.962 18.13 19.831 27.3 29 21.373 21.373 50.037 62.369 85 42.381 14.202-8.119 25.515-22.896 37-34.381l67-67 25-25c2.324-2.322 6.159-7.802 10-6.793 3.79.995 7.339 6.132 10 8.793l21 21 82 82c15.099 15.099 30.478 31.265 54 25.239 18.371-4.706 31.183-22.422 44-35.239l25-25c6.257-6.257 13.21-12.524 16.444-21 4.2-11.005 4.013-25.637-1.912-36-5.324-9.313-14.027-16.495-21.532-24l-65-65-36-36c-2.908-2.908-12.035-9.272-10.793-14 .995-3.79 6.132-7.339 8.793-10l23-23 75-75c11.608-11.608 27.009-23.049 30.485-40 2.239-10.916.085-22.713-5.925-32-6.824-10.547-17.714-19.154-26.56-28l-14-14C448.141 16.14 431.7-4.959 405 .515c-3.792.777-7.636 2.03-11 3.953-14.171 8.101-25.546 23.078-37 34.532l-67 67-25 25c-2.324 2.322-6.159 7.802-10 6.793-3.79-.995-7.339-6.132-10-8.793l-21-21-81-81C127.589 11.589 112.917-4.388 89 .515z"/></svg>
